img/work/logo-nravo.svg

<svg width="47" height="49" viewBox="0 0 47 49" xmlns="http://www.w3.org/2000/svg" xmlns:xlink="http://www.w3.org/1999/xlink"><title>logo_nravo2_small</title><defs><path d="M.002.008v48.037h46.895V.008H.002z" id="a"/><mask id="b" x="0" y="0" width="46.895" height="48.037" fill="#fff"><use xlink:href="#a"/></mask></defs><g fill="none" fill-rule="evenodd"><use stroke="#FFF" mask="url(#b)" stroke-width="2" fill="#EF3F38" xlink:href="#a"/><path d="M36.305 36.548H25.353l-.476-3.762c.476-.635 1.478-1.223 2.62-1.661v-9.674c0-3.714-1.24-4.447-3.57-4.447-1.858 0-3.383.733-4.525 1.563v12.558c1.097.438 2.094 1.026 2.62 1.661l-.478 3.762h-10.95l-.478-3.762c.478-.635 1.477-1.223 2.619-1.661V17.542c-1.092-.391-1.999-.978-2.619-1.662l.478-3.763c2.474-.586 5.522-.733 8.187-.488v2.442c1.623-1.368 4.573-2.345 6.953-2.345 6.238 0 8.43 2.688 8.43 10.017v9.382c1.092.438 2.096 1.026 2.617 1.661l-.476 3.762z" fill="#FFF"/></g></svg>

<?xml version="1.0" encoding="UTF-8" standalone="no"?>
<svg width="47px" height="49px" viewBox="0 0 47 49" version="1.1" xmlns="http://www.w3.org/2000/svg" xmlns:xlink="http://www.w3.org/1999/xlink">
    <!-- Generator: Sketch 41 (35326) - http://www.bohemiancoding.com/sketch -->
    <title>logo_nravo2_small</title>
    <desc>Created with Sketch.</desc>
    <defs>
        <path d="M0.002,0.008 L0.002,48.045 L46.897,48.045 L46.897,0.008 L0.002,0.008 Z" id="path-1"></path>
        <mask id="mask-2" maskContentUnits="userSpaceOnUse" maskUnits="objectBoundingBox" x="0" y="0" width="46.895" height="48.037" fill="white">
            <use xlink:href="#path-1"></use>
        </mask>
    </defs>
    <g id="Content-real" stroke="none" stroke-width="1" fill="none" fill-rule="evenodd">
        <g id="Work-Copy" transform="translate(-823.000000, -10441.000000)">
            <g id="logo_nravo2_small" transform="translate(823.000000, 10441.000000)">
                <g id="logosmallsvg">
                    <use id="path-1" stroke="#FFFFFF" mask="url(#mask-2)" stroke-width="2" fill="#EF3F38" xlink:href="#path-1"></use>
                    <path d="M36.305,36.548 L25.353,36.548 L24.877,32.786 C25.353,32.151 26.355,31.563 27.497,31.125 L27.497,21.451 C27.497,17.737 26.257,17.004 23.927,17.004 C22.069,17.004 20.544,17.737 19.402,18.567 L19.402,31.125 C20.499,31.563 21.496,32.151 22.022,32.786 L21.544,36.548 L10.594,36.548 L10.116,32.786 C10.594,32.151 11.593,31.563 12.735,31.125 L12.735,17.542 C11.643,17.151 10.736,16.564 10.116,15.88 L10.594,12.117 C13.068,11.531 16.116,11.384 18.781,11.629 L18.781,14.071 C20.404,12.703 23.354,11.726 25.734,11.726 C31.972,11.726 34.164,14.414 34.164,21.743 L34.164,31.125 C35.256,31.563 36.26,32.151 36.781,32.786 L36.305,36.548 Z" id="path-2" fill="#FFFFFF"></path>
                </g>
            </g>
        </g>
    </g>
</svg>
